;FLAVOR:Marlin
;TIME:1197
;Filament used: 0.563731m
;Layer height: 0.13125
;MINX:47.449
;MINY:46.019
;MINZ:0.306
;MAXX:72.55
;MAXY:73.98
;MAXZ:8.78
;Generated with Cura_SteamEngine 4.9.0
M140 S65
M105
M190 S65
M104 S205
M105
M109 S205
M82 ;absolute extrusion mode
G21;(metric values)
G90;(absolute positioning)
M82;(set extruder to absolute mode)
M107;(start with the fan off)
G28;(Home the printer)
G92 E0;(Reset the extruder to 0)
G0 Z5 E5 F500;(Move up and prime the nozzle)
G0 X-1 Z0;(Move outside the printable area)
G1 Y60 E8 F500;(Draw a priming/wiping line to the rear)
G1 X-1;(Move a little closer to the print area)
G1 Y10 E16 F500;(draw more priming/wiping)
G1 E15 F250;(Small retract)
G92 E0;(Zero the extruder)
G92 E0
G92 E0
G1 F2400 E-2.5
;LAYER_COUNT:60
;LAYER:-6
M107
G0 F7200 X48.973 Y50.755 Z0.306
;TYPE:SUPPORT-INTERFACE
G1 F2400 E0
G1 F1125 X49.465 Y50.295 E0.06855
G1 X49.955 Y49.943 E0.12996
G1 X50.484 Y49.533 E0.19807
G1 X50.969 Y49.048 E0.26788
G1 X51.459 Y48.395 E0.35097
G1 X51.973 Y47.755 E0.43451
G1 X52.465 Y47.295 E0.50306
G1 X52.911 Y46.972 E0.55911
G1 X53.436 Y46.684 E0.62005
G1 X53.962 Y46.476 E0.67762
G1 X54.515 Y46.336 E0.73568
G1 X55.303 Y46.252 E0.81633
G1 X55.495 Y46.245 E0.83589
G1 X64.546 Y46.245 E1.75706
G1 X65.049 Y46.273 E1.80833
G1 X65.631 Y46.365 E1.8683
G1 X66.18 Y46.525 E1.9265
G1 X66.717 Y46.758 E1.98608
G1 X67.195 Y47.041 E2.04262
G1 X67.815 Y47.543 E2.12381
G1 X68.275 Y48.035 E2.19236
G1 X68.627 Y48.525 E2.25376
G1 X69.037 Y49.054 E2.32188
G1 X69.522 Y49.539 E2.39169
G1 X70.194 Y50.041 E2.47706
G1 X70.815 Y50.543 E2.55833
G1 X71.275 Y51.035 E2.62688
G1 X71.598 Y51.481 E2.68292
G1 X71.888 Y52.008 E2.74414
G1 X72.096 Y52.539 E2.80219
G1 X72.233 Y53.075 E2.85849
G1 X72.318 Y53.866 E2.93946
G1 X72.325 Y54.051 E2.9583
G1 X72.325 Y66.876 E4.26358
G1 X72.297 Y67.379 E4.31485
G1 X72.205 Y67.961 E4.37482
G1 X72.045 Y68.51 E4.43302
G1 X71.812 Y69.047 E4.4926
G1 X71.529 Y69.525 E4.54913
G1 X71.027 Y70.145 E4.63032
G1 X70.537 Y70.603 E4.69859
G1 X70.089 Y70.928 E4.75492
G1 X69.821 Y71.086 E4.78658
G1 X69.06 Y71.472 E4.87343
G1 X69.043 Y71.486 E4.87567
G1 X68.478 Y71.868 E4.94508
G1 X67.97 Y72.313 E5.01381
G1 X67.537 Y72.703 E5.07312
G1 X67.089 Y73.028 E5.12945
G1 X66.564 Y73.316 E5.1904
G1 X66.038 Y73.524 E5.24797
G1 X65.485 Y73.664 E5.30602
G1 X64.697 Y73.748 E5.38668
G1 X64.505 Y73.755 E5.40623
G1 X55.454 Y73.755 E6.32741
G1 X54.951 Y73.727 E6.37868
G1 X54.369 Y73.635 E6.43865
G1 X53.818 Y73.474 E6.49707
G1 X53.282 Y73.241 E6.55655
G1 X52.805 Y72.959 E6.61295
G1 X52.185 Y72.457 E6.69414
G1 X51.684 Y71.997 E6.76337
G1 X51.524 Y71.869 E6.78422
G1 X50.963 Y71.488 E6.85324
G1 X50.277 Y71.139 E6.93157
G1 X49.805 Y70.859 E6.98743
G1 X49.185 Y70.357 E7.06862
G1 X48.725 Y69.865 E7.13717
G1 X48.399 Y69.414 E7.19381
G1 X48.114 Y68.894 E7.25416
G1 X47.906 Y68.368 E7.31173
G1 X47.766 Y67.815 E7.36978
G1 X47.681 Y67.017 E7.45146
G1 X47.675 Y66.849 E7.46857
G1 X47.675 Y54.024 E8.77385
G1 X47.703 Y53.521 E8.82512
G1 X47.795 Y52.939 E8.88509
G1 X47.955 Y52.39 E8.94329
G1 X48.188 Y51.853 E9.00286
G1 X48.479 Y51.365 E9.06069
G1 X48.809 Y50.958 E9.11402
G0 F1012.5 X48.973 Y50.755
G0 F7200 X49.6 Y50.198
G1 F1125 X49.6 Y70.693 E11.19992
G0 F7200 X51.2 Y71.648
G1 F1125 X51.2 Y48.74 E13.5314
G0 F7200 X52.8 Y47.052
G1 F1125 X52.8 Y72.954 E16.16761
G0 F7200 X54.4 Y73.639
G1 F1125 X54.4 Y46.365 E18.94345
G0 F7200 X56 Y46.245
G1 F1125 X56 Y73.755 E21.7433
G0 F7200 X57.6 Y73.755
G1 F1125 X57.6 Y46.245 E24.54316
G0 F7200 X59.2 Y46.245
G1 F1125 X59.2 Y73.755 E27.34302
G0 F7200 X60.8 Y73.755
G1 F1125 X60.8 Y46.245 E30.14288
G0 F7200 X62.4 Y46.245
G1 F1125 X62.4 Y73.755 E32.94274
G0 F7200 X64 Y73.755
G1 F1125 X64 Y46.245 E35.74259
G0 F7200 X65.6 Y46.361
G1 F1125 X65.6 Y73.635 E38.51843
G0 F7200 X67.2 Y72.948
G1 F1125 X67.2 Y47.046 E41.15464
G0 F7200 X68.8 Y48.749
G1 F1125 X68.8 Y71.651 E43.48551
G0 F7200 X70.4 Y70.703
G1 F1125 X70.4 Y50.208 E45.57141
G0 F7200 X72 Y52.294
G1 F1125 X72 Y68.614 E47.23239
M104 S200
G0 F7200 X48 Y68.605
G1 F1125 X48 Y52.286 E48.89328
G0 F600 X48 Y52.286 Z0.525
G0 F7200 X47.852 Y68.368
;TIME_ELAPSED:54.321528
;LAYER:-5
M140 S60
;TYPE:SUPPORT
G1 F1125 X47.952 Y68.642 E48.91187
G1 X48.072 Y68.925 E48.93146
G1 X48.194 Y69.164 E48.94856
G1 X48.356 Y69.437 E48.96879
G1 X48.52 Y69.683 E48.98764
G1 X48.692 Y69.903 E49.00543
G1 X48.938 Y70.184 E49.02924
G1 X49.035 Y70.287 E49.03825
G1 X49.151 Y70.394 E49.04831
G1 X49.503 Y70.697 E49.07791
G1 X49.776 Y70.898 E49.09952
G1 X50.001 Y71.042 E49.11655
G1 X50.256 Y71.184 E49.13515
G1 X50.517 Y71.307 E49.15354
G1 X50.936 Y71.53 E49.18379
G1 X51.494 Y71.908 E49.22675
G1 X51.679 Y72.071 E49.24246
G1 X51.684 Y72.066 E49.24291
G1 X51.884 Y72.249 E49.26019
G1 X47.791 Y68.156 E49.62911
G1 X47.775 Y68.099 E49.63288
G1 X47.714 Y67.819 E49.65115
G1 X47.668 Y67.503 E49.6715
G1 X47.631 Y67.02 E49.70237
G1 X47.625 Y66.848 E49.71334
G1 X47.625 Y66.716 E49.72176
G1 X54.647 Y73.739 E50.35473
G1 X54.652 Y73.74 E50.35505
G1 X54.942 Y73.775 E50.37367
G1 X55.326 Y73.8 E50.39819
G1 X55.452 Y73.804 E50.40623
G1 X55.985 Y73.804 E50.4402
G1 X47.625 Y65.444 E51.19372
G1 X47.625 Y64.171 E51.27486
G1 X57.257 Y73.804 E52.14308
G1 X58.53 Y73.804 E52.22421
G1 X47.625 Y62.898 E53.20718
G1 X47.625 Y61.625 E53.28831
G1 X59.803 Y73.804 E54.38601
G1 X61.076 Y73.804 E54.46715
G1 X47.625 Y60.352 E55.67959
G1 X47.625 Y59.08 E55.76066
G1 X62.349 Y73.804 E57.0878
G1 X63.621 Y73.804 E57.16887
G1 X47.625 Y57.807 E58.61071
G1 X47.625 Y56.534 E58.69185
G1 X64.874 Y73.783 E60.24658
G1 X65.175 Y73.761 E60.26581
G1 X65.49 Y73.713 E60.28612
G1 X65.77 Y73.652 E60.30438
G1 X65.961 Y73.597 E60.31705
G1 X47.625 Y55.261 E61.96976
G1 X47.625 Y54.021 E62.04879
G1 X47.625 Y53.989 E62.05083
G1 X66.857 Y73.221 E63.7843
G1 X67.1 Y73.079 E63.80223
G1 X67.354 Y72.907 E63.82178
G1 X67.573 Y72.737 E63.83945
G1 X67.612 Y72.703 E63.84275
G1 X47.765 Y52.856 E65.63165
G1 X47.823 Y52.635 E65.64621
G1 X47.915 Y52.35 E65.6653
G1 X48.013 Y52.103 E65.68224
G1 X48.101 Y51.92 E65.69518
G1 X68.284 Y72.102 E67.51432
G1 X68.509 Y71.906 E67.53334
G1 X69.017 Y71.562 E67.57244
G1 X48.587 Y51.133 E69.41384
G1 X48.632 Y51.073 E69.41862
G1 X48.935 Y50.721 E69.44823
G1 X49.039 Y50.607 E69.45806
G1 X49.145 Y50.508 E69.4673
G1 X49.194 Y50.466 E69.47142
G1 X69.852 Y71.125 E71.33346
G1 X70.099 Y70.979 E71.35175
G1 X70.354 Y70.808 E71.37132
G1 X70.573 Y70.637 E71.38903
G1 X70.607 Y70.607 E71.39192
G1 X49.912 Y49.912 E73.25725
G1 X49.924 Y49.903 E73.25821
G1 X50.449 Y49.495 E73.30058
G1 X50.609 Y49.336 E73.31496
G1 X71.243 Y69.97 E75.1748
G1 X71.367 Y69.826 E75.18691
G1 X71.569 Y69.553 E75.20855
G1 X71.712 Y69.328 E75.22554
G1 X71.769 Y69.224 E75.2331
G1 X51.199 Y48.653 E77.08721
G1 X51.427 Y48.349 E77.11143
G1 X51.632 Y48.074 E77.13329
G1 X51.752 Y47.934 E77.14505
G1 X72.153 Y68.334 E78.98384
G1 X72.175 Y68.264 E78.98851
G1 X72.254 Y67.966 E79.00816
G1 X72.31 Y67.675 E79.02705
G1 X72.346 Y67.386 E79.04561
G1 X72.354 Y67.263 E79.05347
G1 X52.387 Y47.296 E80.85318
G1 X52.425 Y47.262 E80.85643
G1 X52.644 Y47.091 E80.87414
G1 X52.899 Y46.92 E80.89371
G1 X53.141 Y46.777 E80.91162
G1 X72.374 Y66.01 E82.64518
G1 X72.374 Y64.737 E82.72632
G1 X54.037 Y46.401 E84.37907
G1 X54.228 Y46.345 E84.39175
G1 X54.508 Y46.285 E84.41
G1 X54.824 Y46.238 E84.43037
G1 X55.125 Y46.215 E84.44961
G1 X72.374 Y63.464 E86.00434
G1 X72.374 Y62.192 E86.08541
G1 X56.377 Y46.195 E87.52729
G1 X57.65 Y46.195 E87.60842
G1 X72.374 Y60.919 E88.93556
G1 X72.374 Y59.646 E89.0167
G1 X58.923 Y46.195 E90.2291
G1 X60.196 Y46.195 E90.31023
G1 X72.374 Y58.373 E91.40789
G1 X72.374 Y57.1 E91.48903
G1 X61.468 Y46.195 E92.47199
G1 X62.741 Y46.195 E92.55312
G1 X72.374 Y55.828 E93.42139
G1 X72.374 Y54.555 E93.50252
G1 X64.014 Y46.195 E94.25605
G1 X64.547 Y46.195 E94.29002
G1 X64.673 Y46.199 E94.29805
G1 X65.055 Y46.222 E94.32244
G1 X65.346 Y46.258 E94.34113
G1 X65.352 Y46.26 E94.34153
G1 X65.636 Y46.315 E94.35997
G1 X65.933 Y46.393 E94.37954
G1 X66.218 Y46.485 E94.39863
G1 X66.465 Y46.584 E94.41559
G1 X66.747 Y46.717 E94.43546
G1 X66.994 Y46.855 E94.45349
G1 X67.223 Y46.999 E94.47073
G1 X67.495 Y47.201 E94.49233
G1 X67.846 Y47.504 E94.52188
G1 X67.964 Y47.612 E94.53208
G1 X68.053 Y47.707 E94.54037
G1 X68.307 Y47.996 E94.5649
G1 X68.475 Y48.212 E94.58234
G1 X68.666 Y48.495 E94.6041
G1 X69.074 Y49.02 E94.64647
G1 X69.554 Y49.501 E94.68978
G1 X70.202 Y49.988 E94.74145
G1 X70.487 Y50.196 E94.76393
G1 X70.847 Y50.505 E94.79417
G1 X70.963 Y50.611 E94.80419
G1 X71.053 Y50.707 E94.81257
G1 X71.306 Y50.995 E94.83701
G1 X71.478 Y51.215 E94.8548
G1 X71.651 Y51.473 E94.8746
G1 X71.798 Y51.724 E94.89314
G1 X71.93 Y51.981 E94.91156
G1 X72.037 Y52.229 E94.92877
G1 X72.148 Y52.54 E94.94982
G1 X72.222 Y52.796 E94.9668
G1 X72.281 Y53.069 E94.9846
G0 F7200 X72.303 Y53.211
G1 F1125 X65.352 Y46.26 E95.61113
G0 F600 X65.352 Y46.26 Z0.656
G0 F7200 X65.685 Y46.145
;TIME_ELAPSED:93.719545
;LAYER:-4
;TYPE:SUPPORT-INTERFACE
G1 F1500 X65.387 Y46.088 E95.61691
G1 X65.072 Y46.049 E95.62296
G1 X64.674 Y46.023 E95.63056
G1 X64.553 Y46.019 E95.63287
G1 X55.487 Y46.02 E95.80569
G1 X55.288 Y46.027 E95.80949
G1 X54.814 Y46.063 E95.81855
G1 X54.478 Y46.113 E95.82502
G1 X54.191 Y46.176 E95.83062
G1 X54.107 Y46.2 E95.83229
G1 X65.896 Y46.2 E96.05701
G1 X65.983 Y46.223 E96.05873
G1 X66.263 Y46.315 E96.06435
G1 X66.542 Y46.426 E96.07007
G1 X66.804 Y46.55 E96.0756
G1 X53.202 Y46.55 E96.33488
G1 X53.075 Y46.614 E96.33759
G1 X52.797 Y46.778 E96.34374
G1 X52.617 Y46.9 E96.34789
G1 X67.385 Y46.9 E96.6294
G1 X67.602 Y47.062 E96.63456
G1 X67.821 Y47.25 E96.64006
G1 X52.175 Y47.25 E96.93831
G1 X52.021 Y47.385 E96.94222
G1 X51.929 Y47.471 E96.94462
G1 X51.81 Y47.6 E96.94796
G1 X68.194 Y47.6 E97.26028
G1 X68.444 Y47.885 E97.2675
G1 X68.495 Y47.95 E97.26908
G1 X51.509 Y47.95 E97.59287
G1 X51.497 Y47.963 E97.59321
G1 X51.282 Y48.253 E97.60009
G1 X51.247 Y48.3 E97.6012
G1 X68.747 Y48.3 E97.93479
G1 X68.809 Y48.392 E97.93691
G1 X69.01 Y48.65 E97.94314
G1 X50.986 Y48.65 E98.28672
G1 X50.799 Y48.9 E98.29267
G1 X50.699 Y49 E98.29537
G1 X69.302 Y49 E98.64998
G1 X69.652 Y49.35 E98.65942
G1 X50.349 Y49.35 E99.02737
G1 X50.335 Y49.364 E99.02775
G1 X49.902 Y49.7 E99.0382
G1 X70.115 Y49.7 E99.4235
G1 X70.314 Y49.849 E99.42824
G1 X70.586 Y50.05 E99.43469
G1 X49.414 Y50.05 E99.83828
G1 X49.316 Y50.126 E99.84064
G1 X49.021 Y50.385 E99.84812
G1 X49.005 Y50.4 E99.84854
G1 X70.993 Y50.4 E100.26768
G1 X71.099 Y50.498 E100.27043
G1 X71.185 Y50.59 E100.27283
G1 X71.326 Y50.75 E100.2769
G1 X48.681 Y50.75 E100.70856
G1 X48.493 Y50.968 E100.71405
G1 X48.395 Y51.1 E100.71718
G1 X71.612 Y51.1 E101.15975
G1 X71.619 Y51.11 E101.15998
G1 X71.792 Y51.366 E101.16587
G1 X71.842 Y51.45 E101.16774
G1 X48.157 Y51.45 E101.61923
G1 X48.137 Y51.481 E101.61993
G1 X47.991 Y51.744 E101.62566
G1 X47.965 Y51.8 E101.62684
G1 X72.036 Y51.8 E102.08569
G1 X72.087 Y51.902 E102.08786
G1 X72.195 Y52.15 E102.09302
G1 X47.809 Y52.15 E102.55787
G1 X47.746 Y52.307 E102.56109
G1 X47.683 Y52.5 E102.56496
G1 X72.32 Y52.5 E103.0346
G1 X72.394 Y52.759 E103.03973
G1 X72.415 Y52.85 E103.04151
G1 X47.586 Y52.85 E103.51481
G1 X47.576 Y52.885 E103.5155
G1 X47.519 Y53.181 E103.52125
G1 X47.517 Y53.2 E103.52161
G1 X72.48 Y53.2 E103.99746
G1 X72.507 Y53.383 E104.00099
G1 X72.52 Y53.55 E104.00418
G1 X47.477 Y53.55 E104.48156
G1 X47.454 Y53.896 E104.48817
G0 F7200 X47.454 Y53.9
G1 F1500 X72.545 Y53.9 E104.96646
G1 X72.55 Y54.05 E104.96932
G1 X72.55 Y54.25 E104.97313
G1 X47.45 Y54.25 E105.45159
G1 X47.45 Y54.6 E105.45826
G1 X72.55 Y54.6 E105.93673
G1 X72.55 Y54.95 E105.9434
G1 X47.45 Y54.95 E106.42186
G1 X47.45 Y55.3 E106.42853
G1 X72.55 Y55.3 E106.90699
G1 X72.55 Y55.65 E106.91366
G1 X47.45 Y55.65 E107.39213
G1 X47.45 Y56 E107.3988
G1 X72.55 Y56 E107.87726
G1 X72.55 Y56.35 E107.88393
G1 X47.45 Y56.35 E108.36239
G1 X47.45 Y56.7 E108.36906
G1 X72.55 Y56.7 E108.84753
G1 X72.55 Y57.05 E108.8542
G1 X47.45 Y57.05 E109.33266
G1 X47.45 Y57.4 E109.33933
G1 X72.55 Y57.4 E109.81779
G1 X72.55 Y57.75 E109.82446
G1 X47.45 Y57.75 E110.30293
G1 X47.45 Y58.1 E110.3096
G1 X72.55 Y58.1 E110.78806
G1 X72.55 Y58.45 E110.79473
G1 X47.45 Y58.45 E111.27319
G1 X47.45 Y58.8 E111.27986
G1 X72.55 Y58.8 E111.75833
G1 X72.55 Y59.15 E111.765
G1 X47.45 Y59.15 E112.24346
G1 X47.449 Y59.5 E112.25013
G1 X72.55 Y59.5 E112.72861
G1 X72.55 Y59.85 E112.73528
G1 X47.449 Y59.85 E113.21376
G1 X47.449 Y60.2 E113.22044
G1 X72.55 Y60.2 E113.69892
G1 X72.55 Y60.55 E113.70559
G1 X47.449 Y60.55 E114.18407
G1 X47.449 Y60.9 E114.19074
G1 X72.55 Y60.9 E114.66922
G1 X72.55 Y61.25 E114.67589
G1 X47.449 Y61.25 E115.15437
G1 X47.449 Y61.6 E115.16105
G1 X72.55 Y61.6 E115.63953
G1 X72.55 Y61.95 E115.6462
G1 X47.449 Y61.95 E116.12468
G1 X47.449 Y62.3 E116.13135
G1 X72.55 Y62.3 E116.60983
G1 X72.55 Y62.65 E116.6165
G1 X47.449 Y62.65 E117.09498
G1 X47.449 Y63 E117.10166
G1 X72.55 Y63 E117.58014
G1 X72.55 Y63.35 E117.58681
G1 X47.449 Y63.35 E118.06529
G1 X47.449 Y63.7 E118.07196
G1 X72.55 Y63.7 E118.55044
G1 X72.55 Y64.05 E118.55711
G1 X47.449 Y64.05 E119.03559
G1 X47.449 Y64.4 E119.04227
G1 X72.55 Y64.4 E119.52075
G1 X72.55 Y64.75 E119.52742
G1 X47.449 Y64.75 E120.0059
G1 X47.449 Y65.1 E120.01257
G1 X72.55 Y65.1 E120.49105
G1 X72.55 Y65.45 E120.49772
G1 X47.449 Y65.45 E120.9762
G1 X47.449 Y65.8 E120.98287
G1 X72.55 Y65.8 E121.46136
G1 X72.55 Y66.15 E121.46803
G1 X47.449 Y66.15 E121.94651
G1 X47.449 Y66.5 E121.95318
G1 X72.55 Y66.5 E122.43166
G1 X72.55 Y66.85 E122.43833
G1 X47.449 Y66.85 E122.91681
G1 X47.456 Y67.042 E122.92048
G1 X47.468 Y67.2 E122.9235
G1 X72.533 Y67.2 E123.40129
G1 X72.521 Y67.397 E123.40505
G1 X72.501 Y67.55 E123.40799
G1 X47.497 Y67.55 E123.88463
G1 X47.541 Y67.847 E123.89035
G1 X47.552 Y67.9 E123.89138
G1 X72.445 Y67.9 E124.3659
G1 X72.424 Y68.015 E124.36812
G1 X72.362 Y68.25 E124.37276
G1 X47.636 Y68.25 E124.84409
G1 X47.685 Y68.419 E124.84744
G1 X47.749 Y68.6 E124.8511
G1 X72.251 Y68.6 E125.31817
G1 X72.143 Y68.872 E125.32374
G1 X72.106 Y68.95 E125.32539
G1 X47.892 Y68.95 E125.78696
G1 X47.912 Y68.996 E125.78792
G1 X48.043 Y69.255 E125.79345
G1 X48.069 Y69.3 E125.79444
G1 X71.929 Y69.3 E126.24927
G1 X71.868 Y69.41 E126.25166
G1 X71.715 Y69.65 E126.25709
G1 X48.285 Y69.65 E126.70372
G1 X48.38 Y69.789 E126.70693
G1 X48.544 Y70 E126.71202
G1 X71.448 Y70 E127.14862
G1 X71.202 Y70.287 E127.15583
G1 X71.143 Y70.35 E127.15747
G1 X48.852 Y70.35 E127.58239
G1 X48.9 Y70.401 E127.58372
G1 X49.042 Y70.532 E127.58741
G1 X49.237 Y70.7 E127.59231
G1 X70.768 Y70.7 E128.00274
G1 X70.684 Y70.774 E128.00488
G1 X70.459 Y70.949 E128.01031
G1 X70.309 Y71.05 E128.01376
G1 X49.686 Y71.05 E128.40688
G1 X49.919 Y71.198 E128.41214
G1 X50.177 Y71.341 E128.41776
G1 X50.3 Y71.4 E128.42036
G1 X69.7 Y71.4 E128.79017
G1 X69.362 Y71.572 E128.7974
G1 X69.157 Y71.68 E128.80181
G1 X69.053 Y71.75 E128.8042
G1 X50.946 Y71.75 E129.14936
G1 X51.385 Y72.047 E129.15947
G1 X51.446 Y72.1 E129.16101
G1 X68.554 Y72.1 E129.48712
G1 X68.154 Y72.45 E129.49726
G1 X51.843 Y72.45 E129.80818
G1 X52.042 Y72.632 E129.81332
G1 X52.237 Y72.8 E129.81823
G1 X67.768 Y72.8 E130.11428
G1 X67.684 Y72.874 E130.11642
G1 X67.459 Y73.049 E130.12185
G1 X67.309 Y73.15 E130.1253
G1 X52.686 Y73.15 E130.40404
G1 X52.919 Y73.298 E130.4093
G1 X53.17 Y73.437 E130.41477
G1 X53.302 Y73.5 E130.41756
G1 X66.7 Y73.5 E130.67296
G1 X66.667 Y73.517 E130.67367
G1 X66.388 Y73.636 E130.67945
G1 X66.089 Y73.744 E130.68551
G1 X65.809 Y73.824 E130.69106
G1 X65.69 Y73.85 E130.69338
G1 X65.521 Y73.887 E130.69668
G1 X65.185 Y73.937 E130.70315
G1 X64.711 Y73.973 E130.71222
G1 X64.512 Y73.98 E130.71601
G1 X55.446 Y73.98 E130.88883
G1 X55.325 Y73.976 E130.89114
G1 X54.927 Y73.95 E130.89874
G1 X54.612 Y73.911 E130.90479
G1 X54.314 Y73.854 E130.91057
G0 F7200 X54.298 Y73.85
G1 F1500 X65.69 Y73.85 E131.12773
G0 F600 X65.69 Y73.85 Z0.788
G0 F7200 X55.635 Y54.355
;TIME_ELAPSED:169.606824
;LAYER:-3
M106 S255
;TYPE:SUPPORT
G1 F1691.2 X64.365 Y54.355 E131.29541
G1 X64.365 Y66.47 E131.52812
G1 X55.635 Y66.47 E131.6958
G1 X55.635 Y55.737 E131.90196
G0 F1522.1 X55.635 Y54.355
G0 F7200 X55.992 Y54.495
