;FLAVOR:Marlin
;TIME:1421
;Filament used: 0.630121m
;Layer height: 0.13125
;MINX:48.025
;MINY:46.595
;MINZ:0.263
;MAXX:71.975
;MAXY:73.405
;MAXZ:10.088
;Generated with Cura_SteamEngine 4.9.0
M140 S65
M105
M190 S65
M104 S205
M105
M109 S205
M82 ;absolute extrusion mode
G21;(metric values)
G90;(absolute positioning)
M82;(set extruder to absolute mode)
M107;(start with the fan off)
G28;(Home the printer)
G92 E0;(Reset the extruder to 0)
G0 Z5 E5 F500;(Move up and prime the nozzle)
G0 X-1 Z0;(Move outside the printable area)
G1 Y60 E8 F500;(Draw a priming/wiping line to the rear)
G1 X-1;(Move a little closer to the print area)
G1 Y10 E16 F500;(draw more priming/wiping)
G1 E15 F250;(Small retract)
G92 E0;(Zero the extruder)
G92 E0
G92 E0
G1 F2400 E-2.5
;LAYER_COUNT:76
;LAYER:0
M107
G0 F4320 X49.663 Y50.486 Z0.263
;TYPE:SKIRT
G1 F2400 E0
G1 F1800 X51.63 Y48.52 E0.10643
G1 X52.132 Y48.003 E0.13401
G1 X52.354 Y47.787 E0.14586
G1 X52.8 Y47.413 E0.16814
G1 X53.292 Y47.105 E0.19035
G1 X53.822 Y46.866 E0.2126
G1 X54.379 Y46.703 E0.23481
G1 X55.142 Y46.607 E0.26424
G1 X55.79 Y46.595 E0.28905
G1 X64.073 Y46.595 E0.60604
G1 X64.776 Y46.605 E0.63294
G1 X65.355 Y46.654 E0.65518
G1 X65.922 Y46.781 E0.67742
G1 X66.466 Y46.985 E0.69965
G1 X66.977 Y47.261 E0.72188
G1 X67.446 Y47.605 E0.74414
G1 X68.084 Y48.233 E0.7784
G1 X70.037 Y50.187 E0.88412
G1 X70.202 Y50.344 E0.89284
G1 X70.564 Y50.699 E0.91224
G1 X70.782 Y50.923 E0.92421
G1 X71.155 Y51.368 E0.94643
G1 X71.464 Y51.86 E0.96866
G1 X71.703 Y52.39 E0.99091
G1 X71.866 Y52.947 E1.01312
G1 X71.963 Y53.713 E1.04267
G1 X71.975 Y54.361 E1.06747
G1 X71.975 Y66.383 E1.52755
G1 X71.965 Y67.105 E1.55519
G1 X71.917 Y67.684 E1.57742
G1 X71.79 Y68.251 E1.59966
G1 X71.586 Y68.795 E1.62189
G1 X71.31 Y69.306 E1.64412
G1 X70.966 Y69.774 E1.66635
G1 X70.615 Y70.142 E1.68581
G1 X70.587 Y70.168 E1.68727
G1 X70.106 Y70.553 E1.71085
G1 X69.322 Y71.092 E1.74726
G1 X67.997 Y71.979 E1.80828
G1 X67.033 Y72.645 E1.85312
G1 X66.533 Y72.942 E1.87538
G1 X65.997 Y73.168 E1.89764
G1 X65.436 Y73.317 E1.91985
G1 X64.694 Y73.395 E1.94841
G1 X64.037 Y73.405 E1.97355
G1 X55.927 Y73.405 E2.28392
G1 X55.224 Y73.395 E2.31083
G1 X54.645 Y73.346 E2.33307
G1 X54.078 Y73.219 E2.3553
G1 X53.534 Y73.015 E2.37754
G1 X52.871 Y72.638 E2.40673
G1 X52.116 Y72.112 E2.44194
G1 X51.149 Y71.42 E2.48745
G1 X50.735 Y71.14 E2.50657
G1 X49.871 Y70.538 E2.54687
G1 X49.418 Y70.173 E2.56914
G1 X49.019 Y69.751 E2.59136
G1 X48.683 Y69.277 E2.6136
G1 X48.414 Y68.762 E2.63583
G1 X48.219 Y68.215 E2.65806
G1 X48.095 Y67.638 E2.68064
G1 X48.03 Y66.944 E2.70732
G1 X48.025 Y66.491 E2.72466
G1 X48.025 Y54.497 E3.18367
G1 X48.035 Y53.794 E3.21057
G1 X48.084 Y53.215 E3.23281
G1 X48.211 Y52.648 E3.25505
G1 X48.415 Y52.104 E3.27728
G1 X48.691 Y51.593 E3.29951
G1 X49.035 Y51.124 E3.32177
G1 X49.177 Y50.98 E3.32951
G0 F1620 X49.663 Y50.486
G0 F4320 X49.911 Y50.733
G1 F1800 X51.863 Y48.782 E3.43513
G1 X52.382 Y48.248 E3.46362
G1 X52.597 Y48.039 E3.4751
G1 X53.025 Y47.683 E3.4964
G1 X53.499 Y47.391 E3.51771
G1 X54.01 Y47.171 E3.539
G1 X54.547 Y47.026 E3.56029
G1 X55.154 Y46.957 E3.58367
G1 X55.795 Y46.945 E3.6082
G1 X64.068 Y46.945 E3.92481
G1 X64.771 Y46.955 E3.95172
G1 X65.325 Y47.003 E3.973
G1 X65.867 Y47.13 E3.9943
G1 X66.385 Y47.333 E4.01559
G1 X66.869 Y47.608 E4.0369
G1 X67.491 Y48.126 E4.06787
G1 X67.837 Y48.481 E4.08685
G1 X69.796 Y50.441 E4.1929
G1 X69.957 Y50.594 E4.2014
G1 X70.319 Y50.949 E4.2208
G1 X70.53 Y51.166 E4.23238
G1 X70.886 Y51.593 E4.25366
G1 X71.178 Y52.067 E4.27497
G1 X71.398 Y52.578 E4.29626
G1 X71.544 Y53.115 E4.31755
G1 X71.613 Y53.725 E4.34105
G1 X71.625 Y54.366 E4.36558
G1 X71.625 Y66.378 E4.82528
G1 X71.615 Y67.1 E4.85292
G1 X71.567 Y67.654 E4.8742
G1 X71.44 Y68.196 E4.8955
G1 X71.238 Y68.714 E4.91678
G1 X70.963 Y69.198 E4.93808
G1 X70.621 Y69.637 E4.95938
G1 X70.349 Y69.912 E4.97418
G1 X69.908 Y70.265 E4.9958
G1 X69.127 Y70.802 E5.03207
G1 X67.822 Y71.675 E5.09216
G1 X66.834 Y72.358 E5.13812
G1 X66.354 Y72.64 E5.15943
G1 X65.839 Y72.851 E5.18073
G1 X65.3 Y72.987 E5.202
G1 X64.689 Y73.045 E5.22549
G1 X64.032 Y73.055 E5.25064
G1 X55.932 Y73.055 E5.56062
G1 X55.229 Y73.045 E5.58753
G1 X54.675 Y72.997 E5.60881
G1 X54.133 Y72.87 E5.63012
G1 X53.615 Y72.667 E5.65141
G1 X53.071 Y72.351 E5.67548
G1 X52.319 Y71.828 E5.71054
G1 X51.345 Y71.132 E5.75635
G1 X50.935 Y70.852 E5.77535
G1 X50.071 Y70.25 E5.81565
G1 X49.638 Y69.9 E5.83696
G1 X49.26 Y69.492 E5.85824
G1 X48.945 Y69.034 E5.87952
G1 X48.698 Y68.535 E5.90083
G1 X48.471 Y67.751 E5.93206
G1 X48.44 Y67.577 E5.93883
G1 X48.38 Y66.94 E5.96331
G1 X48.375 Y66.487 E5.98065
G1 X48.375 Y54.502 E6.43931
G1 X48.385 Y53.799 E6.46622
G1 X48.433 Y53.245 E6.4875
G1 X48.56 Y52.703 E6.50881
G1 X48.763 Y52.185 E6.5301
G1 X49.038 Y51.701 E6.5514
G1 X49.429 Y51.232 E6.57477
G0 F1620 X49.556 Y51.079
G0 X49.911 Y50.733
G0 F4320 X50.19 Y50.949
G1 F1800 X52.137 Y49.003 E6.68012
G1 X52.632 Y48.493 E6.70732
G1 X52.84 Y48.291 E6.71841
G1 X53.249 Y47.953 E6.73872
G1 X53.704 Y47.68 E6.75903
G1 X54.195 Y47.478 E6.77934
G1 X54.71 Y47.352 E6.79963
G1 X55.314 Y47.302 E6.82283
G1 X55.799 Y47.295 E6.84139
G1 X64.063 Y47.295 E7.15765
G1 X64.766 Y47.305 E7.18456
G1 X65.295 Y47.353 E7.20489
G1 X65.81 Y47.479 E7.22518
G1 X66.301 Y47.681 E7.2455
G1 X66.755 Y47.955 E7.26579
G1 X67.241 Y48.37 E7.29025
G1 X67.621 Y48.76 E7.31109
G1 X69.556 Y50.696 E7.41584
G1 X69.712 Y50.844 E7.42407
G1 X70.144 Y51.27 E7.44729
G1 X70.278 Y51.409 E7.45468
G1 X70.616 Y51.817 E7.47495
G1 X70.89 Y52.272 E7.49528
G1 X71.092 Y52.763 E7.5156
G1 X71.218 Y53.278 E7.53589
G1 X71.268 Y53.886 E7.55924
G1 X71.275 Y54.37 E7.57776
G1 X71.275 Y66.373 E8.03711
G1 X71.265 Y67.095 E8.06475
G1 X71.217 Y67.623 E8.08504
G1 X71.091 Y68.139 E8.10536
G1 X70.889 Y68.63 E8.12568
G1 X70.616 Y69.084 E8.14596
G1 X70.139 Y69.629 E8.17367
G1 X70.111 Y69.655 E8.17514
G1 X69.71 Y69.976 E8.19479
G1 X68.932 Y70.511 E8.23093
G1 X67.597 Y71.404 E8.2924
G1 X66.634 Y72.07 E8.3372
G1 X66.176 Y72.338 E8.35751
G1 X65.683 Y72.534 E8.37782
G1 X65.167 Y72.654 E8.39809
G1 X64.684 Y72.695 E8.41664
G1 X64.027 Y72.705 E8.44179
G1 X55.937 Y72.705 E8.75139
G1 X55.234 Y72.695 E8.7783
G1 X54.705 Y72.647 E8.79863
G1 X54.19 Y72.521 E8.81892
G1 X53.699 Y72.319 E8.83923
G1 X53.271 Y72.064 E8.8583
G1 X52.523 Y71.543 E8.89319
G1 X51.56 Y70.854 E8.9385
G1 X51.135 Y70.565 E8.95817
G1 X50.271 Y69.963 E8.99847
G1 X49.86 Y69.628 E9.01876
G1 X49.503 Y69.235 E9.03908
G1 X49.21 Y68.792 E9.05941
G1 X48.986 Y68.311 E9.07971
G1 X48.816 Y67.689 E9.10439
G1 X48.785 Y67.515 E9.11115
G1 X48.73 Y66.936 E9.13341
G1 X48.725 Y66.483 E9.15075
G1 X48.725 Y54.507 E9.60907
G1 X48.735 Y53.804 E9.63598
G1 X48.783 Y53.275 E9.65631
G1 X48.909 Y52.76 E9.6766
G1 X49.111 Y52.269 E9.69691
G1 X49.385 Y51.815 E9.71721
G1 X49.703 Y51.443 E9.73594
G0 F1620 X49.8 Y51.329
G0 X50.19 Y50.949
G0 F4320 X50.413 Y51.22
G1 F1800 X52.39 Y49.244 E9.84291
G1 X52.882 Y48.738 E9.86992
G1 X53.083 Y48.543 E9.88064
G1 X53.472 Y48.224 E9.89989
G1 X53.907 Y47.97 E9.91917
G1 X54.376 Y47.788 E9.93842
G1 X54.869 Y47.682 E9.95772
G1 X55.394 Y47.65 E9.97785
G1 X55.803 Y47.645 E9.9935
G1 X64.058 Y47.645 E10.30942
G1 X64.761 Y47.655 E10.33632
G1 X65.263 Y47.702 E10.35562
G1 X65.75 Y47.828 E10.37487
G1 X66.212 Y48.029 E10.39415
G1 X66.636 Y48.301 E10.41343
G1 X66.99 Y48.614 E10.43151
G1 X67.342 Y48.975 E10.45081
G1 X69.333 Y50.967 E10.55859
G1 X69.467 Y51.094 E10.56566
G1 X69.892 Y51.512 E10.58847
G1 X70.026 Y51.651 E10.59586
G1 X70.345 Y52.041 E10.61514
G1 X70.6 Y52.475 E10.63441
G1 X70.782 Y52.945 E10.6537
G1 X70.887 Y53.437 E10.67295
G1 X70.92 Y53.965 E10.6932
G1 X70.925 Y54.374 E10.70885
G1 X70.925 Y66.368 E11.16786
G1 X70.915 Y67.09 E11.19549
G1 X70.868 Y67.591 E11.21475
G1 X70.742 Y68.079 E11.23404
G1 X70.541 Y68.541 E11.25332
G1 X70.27 Y68.965 E11.27258
G1 X69.9 Y69.373 E11.29366
G1 X69.511 Y69.688 E11.31281
G1 X68.738 Y70.22 E11.34872
G1 X67.384 Y71.126 E11.41107
G1 X66.435 Y71.782 E11.45522
G1 X66 Y72.034 E11.47446
G1 X65.53 Y72.215 E11.49373
G1 X65.037 Y72.319 E11.51302
G1 X64.678 Y72.345 E11.52679
G1 X64.021 Y72.355 E11.55194
G1 X55.942 Y72.355 E11.86112
G1 X55.239 Y72.345 E11.88803
G1 X54.737 Y72.298 E11.90732
G1 X54.25 Y72.172 E11.92657
G1 X53.788 Y71.971 E11.94586
G1 X53.471 Y71.776 E11.9601
G1 X52.727 Y71.258 E11.99479
G1 X51.758 Y70.564 E12.04041
G1 X51.335 Y70.278 E12.05995
G1 X50.471 Y69.676 E12.10025
G1 X50.082 Y69.356 E12.11952
G1 X49.748 Y68.979 E12.1388
G1 X49.479 Y68.554 E12.15805
G1 X49.279 Y68.091 E12.17735
G1 X49.129 Y67.454 E12.2024
G1 X49.08 Y66.932 E12.22246
G1 X49.075 Y66.479 E12.2398
G1 X49.075 Y54.512 E12.69777
G1 X49.085 Y53.809 E12.72468
G1 X49.132 Y53.307 E12.74398
G1 X49.258 Y52.82 E12.76323
G1 X49.459 Y52.358 E12.78251
G1 X49.731 Y51.934 E12.80179
G1 X49.926 Y51.714 E12.81304
G0 F1620 X50.044 Y51.58
G0 X50.413 Y51.22
G1 F2400 E10.31304
;MESH:prog-jig.stl
G0 F4320 X52.551 Y53.155
G0 X52.551 Y54.121
G0 X53.282 Y66.048
G0 X56.282 Y66.048
G0 X56.282 Y68.148
G0 X63.718 Y68.148
G0 X61.579 Y67.487
;TYPE:WALL-INNER
G1 F2400 E12.81304
G1 F1800 X63.875 Y67.487 E12.90091
G1 X63.875 Y68.247 E12.92999
G1 X63.869 Y68.305 E12.93222
G1 X56.125 Y68.305 E13.22858
G1 X56.125 Y66.205 E13.30895
G1 X53.125 Y66.205 E13.42376
G1 X53.125 Y54.695 E13.86425
G1 X56.125 Y54.695 E13.97906
G1 X56.125 Y51.695 E14.09387
G1 X63.875 Y51.695 E14.39046
G1 X63.875 Y54.695 E14.50527
G1 X66.875 Y54.695 E14.62008
G1 X66.875 Y66.205 E15.06057
G1 X65.271 Y66.205 E15.12195
G1 X65.271 Y61.793 E15.2908
G1 X61.754 Y61.792 E15.42539
G1 X61.579 Y61.792 E15.43209
G1 X61.579 Y61.967 E15.43643
G1 X61.579 Y67.487 E15.64768
G0 F4320 X61.929 Y67.137
G1 F1800 X64.225 Y67.137 E15.73554
G1 X64.225 Y68.262 E15.7786
G1 X64.186 Y68.655 E15.79371
G1 X55.775 Y68.655 E16.1156
G1 X55.775 Y66.555 E16.19597
G1 X52.775 Y66.555 E16.31078
G1 X52.775 Y54.345 E16.77805
G1 X55.775 Y54.345 E16.89286
G1 X55.775 Y51.345 E17.00767
G1 X64.225 Y51.345 E17.33105
G1 X64.225 Y54.345 E17.44586
G1 X67.225 Y54.345 E17.56067
G1 X67.225 Y66.555 E18.02795
G1 X64.921 Y66.555 E18.11612
G1 X64.921 Y62.143 E18.28497
G1 X62.104 Y62.142 E18.39278
G1 X61.929 Y62.142 E18.39947
G1 X61.929 Y62.317 E18.40381
G1 X61.929 Y67.137 E18.58827
G0 F4320 X62.254 Y66.812
;TYPE:WALL-OUTER
G1 F1800 X63.422 Y66.812 E18.63297
G1 X63.422 Y65.645 E18.67763
G1 X62.428 Y65.645 E18.71567
G1 X62.253 Y65.645 E18.72237
G1 X62.253 Y65.82 E18.7267
G1 X62.254 Y66.812 E18.76466
G0 F4320 X62.454 Y66.812
G0 X62.454 Y66.999
G0 X62.066 Y65.635
G0 X62.254 Y65.635
G1 F1800 X63.422 Y65.635 E18.80936
G1 X63.422 Y64.645 E18.84725
G1 X62.253 Y64.645 E18.89199
G1 X62.254 Y65.403 E18.921
G0 F1620 X62.254 Y65.635
G0 F4320 X62.454 Y65.635
G1 F2400 E16.421
G0 F4320 X62.559 Y65.635
G0 X62.066 Y64.635
G0 X62.253 Y64.635
G1 F2400 E18.921
G1 F1800 X63.422 Y64.635 E18.92227
G1 X63.422 Y63.645 E18.96016
G1 X62.253 Y63.645 E19.0049
G1 X62.253 Y64.476 E19.0367
G0 F1620 X62.253 Y64.635
G0 F4320 X62.453 Y64.635
G1 F2400 E16.5367
G0 F4320 X62.558 Y64.635
G0 X63.25 Y64.463
G0 X62.478 Y63.635
G0 X62.253 Y63.635
G1 F2400 E19.0367
G1 F1800 X62.428 Y63.635 E19.0434
G1 X63.422 Y63.635 E19.08144
G1 X63.422 Y62.467 E19.12614
G1 X62.254 Y62.467 E19.17084
G1 X62.253 Y63.46 E19.20884
G1 X62.253 Y63.635 E19.21317
G0 F4320 X62.428 Y63.635
G0 X62.453 Y63.635
G0 X63.432 Y63.635
G1 F1800 X64.422 Y63.635 E19.25106
G1 X64.597 Y63.635 E19.25776
G1 X64.597 Y63.46 E19.26209
G1 X64.596 Y62.468 E19.30006
G1 X63.432 Y62.468 E19.3446
G1 X63.432 Y63.635 E19.34586
G0 F4320 X63.632 Y63.635
G0 X63.432 Y64.635
G1 F1800 X64.597 Y64.635 E19.39044
G1 X64.596 Y63.645 E19.42833
G1 X64.421 Y63.645 E19.43179
G1 X63.432 Y63.645 E19.45125
G1 X63.432 Y64.635 E19.45233
G0 F4320 X63.632 Y64.635
G0 X63.432 Y65.635
G1 F1800 X64.597 Y65.635 E19.49692
G1 X64.597 Y64.645 E19.53481
G1 X63.432 Y64.645 E19.53608
G1 X63.432 Y65.562 E19.53708
G0 F1620 X63.432 Y65.635
G0 F4320 X63.632 Y65.635
G1 F2400 E17.03708
G0 F4320 X63.432 Y66.587
G0 X63.432 Y66.812
G1 F2400 E19.53708
G1 F1800 X64.55 Y66.812 E19.57987
G1 X64.596 Y66.812 E19.58163
G1 X64.596 Y66.671 E19.58702
G1 X64.597 Y65.82 E19.61959
G1 X64.597 Y65.645 E19.62629
G1 X64.422 Y65.645 E19.63062
G1 X63.432 Y65.645 E19.66851
G1 X63.432 Y66.812 E19.66979
G0 F4320 X63.632 Y66.812
G0 X64.55 Y66.88
G1 F1800 X64.55 Y68.274 E19.72313
G1 X64.48 Y68.98 E19.75029
G1 X55.45 Y68.98 E20.09586
G1 X55.45 Y66.88 E20.17623
G1 X52.45 Y66.88 E20.29104
G1 X52.45 Y54.02 E20.78319
G1 X55.45 Y54.02 E20.898
G1 X55.45 Y51.02 E21.01281
G1 X64.55 Y51.02 E21.36107
G1 X64.55 Y54.02 E21.47588
G1 X67.55 Y54.02 E21.59069
G1 X67.55 Y66.88 E22.08284
G1 X64.737 Y66.88 E22.19049
G1 X64.596 Y66.88 E22.19435
G1 X64.55 Y66.88 E22.1947
G0 F4320 X64.55 Y67.08
G0 X64.363 Y67.08
G0 X63.535 Y67.572
G0 X63.535 Y67.827
;TYPE:SKIN
G1 F1800 X63.535 Y67.965 E22.19998
G1 X56.465 Y67.965 E22.47055
G1 X56.465 Y65.865 E22.55091
G1 X53.465 Y65.865 E22.66572
G1 X53.465 Y55.035 E23.08019
G1 X56.465 Y55.035 E23.195
G1 X56.465 Y52.035 E23.30981
G1 X63.535 Y52.035 E23.58037
G1 X63.535 Y55.035 E23.69518
G1 X66.535 Y55.035 E23.80999
G1 X66.535 Y65.865 E24.22446
G1 X65.611 Y65.865 E24.25982
G1 X65.611 Y61.453 E24.42867
G1 X61.239 Y61.452 E24.59598
G1 X61.239 Y67.827 E24.83995
G1 X62.841 Y67.827 E24.90126
G0 F1620 X63.535 Y67.827
G0 F4320 X63.535 Y67.572
G0 X56.282 Y68.148
G0 X56.273 Y66.801
G0 X53.827 Y66.12
G0 X53.827 Y65.707
G1 F1800 X53.622 Y65.501 E24.91238
G0 F4320 X53.622 Y65.006
G1 F1800 X54.322 Y65.707 E24.9503
G0 F4320 X54.817 Y65.707
G1 F1800 X53.622 Y64.511 E25.015
G0 F4320 X53.622 Y64.016
G1 F1800 X55.312 Y65.707 E25.10649
G0 F4320 X55.807 Y65.707
G1 F1800 X53.622 Y63.521 E25.22477
G0 F4320 X53.622 Y63.026
G1 F1800 X56.302 Y65.707 E25.36985
G0 F4320 X56.622 Y66.026
G1 F1800 X58.402 Y67.807 E25.46621
G0 F4320 X58.897 Y67.807
G1 F1800 X53.622 Y62.531 E25.75173
G0 F4320 X53.622 Y62.036
G1 F1800 X59.392 Y67.807 E26.06404
G0 F4320 X59.887 Y67.807
G1 F1800 X53.622 Y61.541 E26.40314
G0 F4320 X53.622 Y61.046
G1 F1800 X60.382 Y67.807 E26.76903
G0 F4320 X60.877 Y67.807
G1 F1800 X53.622 Y60.551 E27.16172
G0 F4320 X53.622 Y60.056
G1 F1800 X61.082 Y67.516 E27.56546
G0 F4320 X61.082 Y67.021
G1 F1800 X53.622 Y59.561 E27.96921
G0 F4320 X53.622 Y59.066
G1 F1800 X61.082 Y66.526 E28.37296
G0 F4320 X61.082 Y66.031
G1 F1800 X53.622 Y58.571 E28.77671
G0 F4320 X53.622 Y58.076
G1 F1800 X61.082 Y65.536 E29.18046
G0 F4320 X61.082 Y65.041
G1 F1800 X53.622 Y57.581 E29.58421
G0 F4320 X53.622 Y57.086
G1 F1800 X61.082 Y64.546 E29.98796
G0 F4320 X61.082 Y64.051
G1 F1800 X53.622 Y56.591 E30.39171
G0 F4320 X53.622 Y56.096
G1 F1800 X61.082 Y63.556 E30.79546
G0 F4320 X61.082 Y63.061
G1 F1800 X53.622 Y55.601 E31.19921
G0 F4320 X53.706 Y55.191
G1 F1800 X61.082 Y62.566 E31.59838
G0 F4320 X61.082 Y62.071
G1 F1800 X54.201 Y55.191 E31.97077
G0 F4320 X54.696 Y55.191
G1 F1800 X61.082 Y61.576 E32.31636
G0 F4320 X61.294 Y61.294
G1 F1800 X55.191 Y55.191 E32.64667
G0 F4320 X55.686 Y55.191
G1 F1800 X61.789 Y61.294 E32.97698
G0 F4320 X62.284 Y61.294
G1 F1800 X56.181 Y55.191 E33.30728
G0 F4320 X56.621 Y55.136
G1 F1800 X62.779 Y61.294 E33.64056
G0 F4320 X63.274 Y61.294
G1 F1800 X56.621 Y54.641 E34.00064
G0 F4320 X56.621 Y54.146
G1 F1800 X63.769 Y61.294 E34.3875
G0 F4320 X64.264 Y61.294
G1 F1800 X56.621 Y53.651 E34.80115
G0 F4320 X56.621 Y53.156
G1 F1800 X64.759 Y61.294 E35.2416
G0 F4320 X65.254 Y61.294
G1 F1800 X56.621 Y52.661 E35.70883
G0 F4320 X56.647 Y52.192
G1 F1800 X65.749 Y61.294 E36.20145
G0 F4320 X65.767 Y61.312
G1 F1800 X66.376 Y61.922 E36.23444
G0 F4320 X66.376 Y62.417
G1 F1800 X65.767 Y61.807 E36.26742
G0 F4320 X65.767 Y62.302
G1 F1800 X66.376 Y62.911 E36.30038
G0 F4320 X66.376 Y63.406
G1 F1800 X65.767 Y62.797 E36.33334
G0 F4320 X65.767 Y63.292
G1 F1800 X66.376 Y63.901 E36.3663
G0 F4320 X66.376 Y64.396
G1 F1800 X65.767 Y63.787 E36.39926
G0 F4320 X65.767 Y64.282
G1 F1800 X66.376 Y64.891 E36.43222
G0 F4320 X66.376 Y65.386
G1 F1800 X65.767 Y64.777 E36.46518
G0 F4320 X65.767 Y65.272
G1 F1800 X66.202 Y65.707 E36.48873
G0 F4320 X66.202 Y66.12
G0 X66.79 Y61.427
G0 X66.376 Y61.427
G1 F1800 X57.142 Y52.192 E36.98852
G0 F4320 X57.636 Y52.192
