;FLAVOR:Marlin
;TIME:1019
;Filament used: 0.428299m
;Layer height: 0.13125
;MINX:48.435
;MINY:47.005
;MINZ:0.263
;MAXX:71.565
;MAXY:72.995
;MAXZ:7.992
;Generated with Cura_SteamEngine 4.9.0
M140 S65
M105
M190 S65
M104 S205
M105
M109 S205
M82 ;absolute extrusion mode
G21;(metric values)
G90;(absolute positioning)
M82;(set extruder to absolute mode)
M107;(start with the fan off)
G28;(Home the printer)
G92 E0;(Reset the extruder to 0)
G0 Z5 E5 F500;(Move up and prime the nozzle)
G0 X-1 Z0;(Move outside the printable area)
G1 Y60 E8 F500;(Draw a priming/wiping line to the rear)
G1 X-1;(Move a little closer to the print area)
G1 Y10 E16 F500;(draw more priming/wiping)
G1 E15 F250;(Small retract)
G92 E0;(Zero the extruder)
G92 E0
G92 E0
G1 F2400 E-2.5
;LAYER_COUNT:60
;LAYER:0
M107
G0 F4320 X49.674 Y51.047 Z0.263
;TYPE:SKIRT
G1 F2400 E0
G1 F1800 X51.475 Y49.27 E0.09683
G1 X51.643 Y49.094 E0.10614
G1 X52.555 Y48.169 E0.15585
G1 X52.973 Y47.802 E0.17714
G1 X53.439 Y47.499 E0.19841
G1 X53.944 Y47.265 E0.21971
G1 X54.477 Y47.106 E0.241
G1 X55.195 Y47.017 E0.26868
G1 X55.64 Y47.005 E0.28572
G1 X64.038 Y47.005 E0.60711
G1 X64.741 Y47.015 E0.63402
G1 X65.295 Y47.063 E0.6553
G1 X65.837 Y47.19 E0.6766
G1 X66.355 Y47.393 E0.69789
G1 X66.839 Y47.668 E0.7192
G1 X67.391 Y48.115 E0.74638
G1 X67.523 Y48.245 E0.75347
G1 X69.294 Y50.04 E0.84997
G1 X69.464 Y50.202 E0.85896
G1 X70.401 Y51.126 E0.90932
G1 X70.768 Y51.544 E0.93061
G1 X71.071 Y52.01 E0.95188
G1 X71.305 Y52.515 E0.97318
G1 X71.464 Y53.049 E0.9945
G1 X71.553 Y53.766 E1.02215
G1 X71.565 Y54.21 E1.03915
G1 X71.565 Y66.348 E1.50367
G1 X71.555 Y67.071 E1.53134
G1 X71.507 Y67.625 E1.55263
G1 X71.38 Y68.167 E1.57393
G1 X71.178 Y68.685 E1.59521
G1 X70.797 Y69.319 E1.62352
G1 X70.274 Y70.026 E1.65717
G1 X69.607 Y70.902 E1.69931
G1 X69.359 Y71.237 E1.71526
G1 X68.997 Y71.659 E1.73654
G1 X68.578 Y72.025 E1.75783
G1 X68.111 Y72.327 E1.77911
G1 X67.605 Y72.559 E1.80041
G1 X67.072 Y72.717 E1.82169
G1 X66.687 Y72.781 E1.83662
G1 X65.121 Y72.961 E1.89695
G1 X64.469 Y72.993 E1.92193
G1 X64.36 Y72.995 E1.9261
G1 X55.961 Y72.995 E2.24753
G1 X55.264 Y72.985 E2.27421
G1 X54.949 Y72.967 E2.28629
G1 X54.256 Y72.9 E2.31293
G1 X53.997 Y72.869 E2.32291
G1 X53.26 Y72.774 E2.35135
G1 X52.714 Y72.664 E2.37267
G1 X52.19 Y72.476 E2.39397
G1 X51.699 Y72.215 E2.41525
G1 X51.25 Y71.887 E2.43653
G1 X50.852 Y71.498 E2.45783
G1 X50.675 Y71.282 E2.46852
G1 X50.244 Y70.717 E2.49571
G1 X49.366 Y69.531 E2.55218
G1 X49.238 Y69.363 E2.56027
G1 X48.933 Y68.898 E2.58155
G1 X48.698 Y68.393 E2.60287
G1 X48.538 Y67.86 E2.62416
G1 X48.447 Y67.134 E2.65216
G1 X48.435 Y66.69 E2.66916
G1 X48.435 Y54.532 E3.13445
G1 X48.445 Y53.828 E3.16139
G1 X48.493 Y53.274 E3.18267
G1 X48.62 Y52.732 E3.20398
G1 X48.823 Y52.214 E3.22527
G1 X49.098 Y51.73 E3.24657
G1 X49.224 Y51.575 E3.25422
G0 F1620 X49.545 Y51.179
G0 X49.674 Y51.047
G0 F4320 X49.92 Y51.296
G1 F1800 X51.708 Y49.532 E3.35034
G1 X51.892 Y49.34 E3.36052
G1 X52.804 Y48.415 E3.41023
G1 X53.204 Y48.066 E3.43055
G1 X53.652 Y47.782 E3.45085
G1 X54.137 Y47.567 E3.47115
G1 X54.649 Y47.428 E3.49145
G1 X55.206 Y47.367 E3.5129
G1 X55.64 Y47.355 E3.52951
G1 X64.033 Y47.355 E3.85071
G1 X64.736 Y47.365 E3.87762
G1 X65.265 Y47.413 E3.89795
G1 X65.78 Y47.539 E3.91824
G1 X66.271 Y47.741 E3.93855
G1 X66.725 Y48.015 E3.95885
G1 X67.146 Y48.366 E3.97982
G1 X67.274 Y48.491 E3.98667
G1 X69.034 Y50.275 E4.08258
G1 X69.218 Y50.451 E4.09232
G1 X70.155 Y51.375 E4.14268
G1 X70.504 Y51.775 E4.163
G1 X70.789 Y52.223 E4.18332
G1 X71.003 Y52.708 E4.20361
G1 X71.142 Y53.22 E4.22391
G1 X71.203 Y53.777 E4.24535
G1 X71.215 Y54.21 E4.26193
G1 X71.215 Y66.343 E4.72626
G1 X71.205 Y67.066 E4.75393
G1 X71.157 Y67.594 E4.77422
G1 X71.031 Y68.11 E4.79455
G1 X70.829 Y68.6 E4.81483
G1 X70.515 Y69.111 E4.83779
G1 X69.996 Y69.814 E4.87123
G1 X69.026 Y71.087 E4.93248
G1 X68.731 Y71.43 E4.94979
G1 X68.328 Y71.775 E4.97009
G1 X67.877 Y72.055 E4.99041
G1 X67.39 Y72.265 E5.0107
G1 X66.648 Y72.433 E5.03982
G1 X65.082 Y72.613 E5.10014
G1 X64.459 Y72.644 E5.12402
G1 X55.966 Y72.645 E5.44904
G1 X55.269 Y72.635 E5.47572
G1 X54.983 Y72.619 E5.48668
G1 X54.297 Y72.552 E5.51306
G1 X54.041 Y72.522 E5.52292
G1 X53.304 Y72.427 E5.55136
G1 X52.785 Y72.32 E5.57164
G1 X52.287 Y72.136 E5.59196
G1 X51.822 Y71.879 E5.61229
G1 X51.402 Y71.556 E5.63257
G1 X50.953 Y71.07 E5.65789
G1 X50.525 Y70.508 E5.68493
G1 X49.483 Y69.1 E5.75196
G1 X49.227 Y68.706 E5.76994
G1 X49.008 Y68.223 E5.79024
G1 X48.865 Y67.712 E5.81055
G1 X48.797 Y67.123 E5.83324
G1 X48.785 Y66.69 E5.84981
G1 X48.785 Y54.537 E6.31491
G1 X48.795 Y53.833 E6.34185
G1 X48.843 Y53.304 E6.36218
G1 X48.969 Y52.789 E6.38247
G1 X49.171 Y52.298 E6.40279
G1 X49.445 Y51.844 E6.42308
G1 X49.465 Y51.82 E6.42428
G0 F1620 X49.795 Y51.423
G0 X49.92 Y51.296
G0 F4320 X50.166 Y51.545
G1 F1800 X51.959 Y49.776 E6.52067
G1 X52.141 Y49.586 E6.53074
G1 X53.053 Y48.661 E6.58045
G1 X53.434 Y48.331 E6.59974
G1 X53.862 Y48.066 E6.61901
G1 X54.327 Y47.872 E6.63829
G1 X54.816 Y47.754 E6.65754
G1 X55.543 Y47.706 E6.68542
G1 X64.028 Y47.705 E7.01014
G1 X64.731 Y47.715 E7.03705
G1 X65.233 Y47.762 E7.05635
G1 X65.72 Y47.888 E7.0756
G1 X66.182 Y48.089 E7.09488
G1 X66.606 Y48.361 E7.11416
G1 X66.981 Y48.693 E7.13333
G1 X68.79 Y50.526 E7.23188
G1 X68.972 Y50.7 E7.24152
G1 X69.909 Y51.624 E7.29188
G1 X70.239 Y52.005 E7.31117
G1 X70.504 Y52.433 E7.33044
G1 X70.698 Y52.898 E7.34972
G1 X70.816 Y53.388 E7.36901
G1 X70.863 Y54.112 E7.39677
G1 X70.865 Y54.21 E7.40052
G1 X70.865 Y66.338 E7.86466
G1 X70.855 Y67.061 E7.89233
G1 X70.808 Y67.562 E7.91159
G1 X70.682 Y68.05 E7.93088
G1 X70.481 Y68.512 E7.95016
G1 X70.234 Y68.903 E7.96786
G1 X69.717 Y69.602 E8.00113
G1 X69.045 Y70.485 E8.0436
G1 X68.797 Y70.82 E8.05955
G1 X68.466 Y71.2 E8.07883
G1 X68.079 Y71.522 E8.0981
G1 X67.647 Y71.78 E8.11736
G1 X67.179 Y71.966 E8.13663
G1 X66.608 Y72.085 E8.15895
G1 X65.042 Y72.265 E8.21928
G1 X64.45 Y72.294 E8.24196
G1 X55.971 Y72.295 E8.56645
G1 X55.274 Y72.285 E8.59313
G1 X55.016 Y72.27 E8.60302
G1 X54.338 Y72.205 E8.62908
G1 X54.086 Y72.175 E8.6388
G1 X53.349 Y72.08 E8.66724
G1 X52.856 Y71.976 E8.68652
G1 X52.386 Y71.796 E8.70578
G1 X51.95 Y71.543 E8.72507
G1 X51.56 Y71.225 E8.74433
G1 X51.231 Y70.858 E8.76319
G1 X50.806 Y70.3 E8.79003
G1 X49.771 Y68.902 E8.8566
G1 X49.522 Y68.516 E8.87418
G1 X49.32 Y68.054 E8.89348
G1 X49.193 Y67.567 E8.91274
G1 X49.137 Y66.788 E8.94263
G1 X49.135 Y66.69 E8.94638
G1 X49.135 Y54.542 E9.41128
G1 X49.145 Y53.838 E9.43823
G1 X49.192 Y53.337 E9.45748
G1 X49.318 Y52.849 E9.47677
G1 X49.519 Y52.387 E9.49605
G1 X49.72 Y52.075 E9.51026
G0 F1620 X49.791 Y51.963
G0 X50.166 Y51.545
G0 F4320 X55.575 Y54.295
;TYPE:SUPPORT
G1 F1800 X64.425 Y54.295 E9.84895
G1 X64.425 Y66.23 E10.3057
G1 X55.575 Y66.23 E10.64439
G1 X55.575 Y54.989 E11.07458
G0 F1620 X55.575 Y54.295
G0 F4320 X55.992 Y54.435
G1 F1800 X55.992 Y66.09 E11.52062
G0 F4320 X55.714 Y65.324
G1 F1800 X64.284 Y65.324 E11.84859
G0 F4320 X62.991 Y66.09
G1 F1800 X62.991 Y54.435 E12.29463
G0 F4320 X64.285 Y55.992
G1 F1800 X55.715 Y55.992 E12.6226
G0 F4320 X55.715 Y58.325
G1 F1800 X64.285 Y58.325 E12.95057
G0 F4320 X64.284 Y60.658
G1 F1800 X55.714 Y60.658 E13.27855
G0 F4320 X55.714 Y62.991
G1 F1800 X64.284 Y62.991 E13.60652
G0 F4320 X60.658 Y66.09
G1 F1800 X60.658 Y54.435 E14.05256
G0 F4320 X58.325 Y54.435
G1 F1800 X58.325 Y66.09 E14.49859
G0 F4320 X54.46 Y67.87
G1 F1800 X54.46 Y68.766 E14.53288
G1 X53.924 Y68.766 E14.55339
G1 X53.924 Y67.87 E14.58768
G1 X54.315 Y67.87 E14.60265
G0 F1620 X54.46 Y67.87
G1 F2400 E12.10265
G0 F4320 X54.674 Y69.266
G0 X64.836 Y69.756
G0 X65.54 Y67.87
G1 F2400 E14.60265
G1 F1800 X66.076 Y67.87 E14.62316
G1 X66.076 Y68.766 E14.65745
G1 X65.54 Y68.766 E14.67796
G1 X65.54 Y68.042 E14.70567
G0 F1620 X65.54 Y67.87
G1 F2400 E12.20567
;MESH:prog-jig-v2-Cube.stl
G0 F4320 X64.295 Y67.87
G0 X63.815 Y68.245
;TYPE:WALL-INNER
G1 F2400 E14.70567
G1 F1800 X56.185 Y68.245 E14.99767
G1 X56.185 Y67.955 E15.00877
G1 X63.815 Y67.955 E15.25071
G1 X63.815 Y68.245 E15.26181
G0 F4320 X64.165 Y68.595
G1 F1800 X55.835 Y68.595 E15.5806
G1 X55.835 Y67.605 E15.61848
G1 X64.165 Y67.605 E15.93727
G1 X64.165 Y67.901 E15.9486
G0 F1620 X64.165 Y68.595
G0 F4320 X64.49 Y68.92
;TYPE:WALL-OUTER
G1 F1800 X55.51 Y68.92 E16.29227
G1 X55.51 Y67.28 E16.35503
G1 X64.49 Y67.28 E16.69869
G1 X64.49 Y68.226 E16.7349
G0 F1620 X64.49 Y68.92
G0 F4320 X64.29 Y68.92
G0 X63.965 Y68.395
G1 F2400 E14.2349
G0 F4320 X64.301 Y67.469
G0 X65.664 Y66.631
G0 X66.815 Y66.145
;TYPE:WALL-INNER
G1 F2400 E16.7349
G1 F1800 X66.15 Y66.145 E16.76035
G1 X66.15 Y54.755 E17.19624
G1 X66.815 Y54.755 E17.22169
G1 X66.815 Y65.451 E17.63102
G0 F1620 X66.815 Y66.145
G0 F4320 X67.165 Y66.495
G1 F1800 X65.8 Y66.495 E17.68326
G1 X65.8 Y54.405 E18.14595
G1 X67.165 Y54.405 E18.19819
G1 X67.165 Y65.801 E18.63431
G0 F1620 X67.165 Y66.495
G0 F4320 X67.49 Y66.82
;TYPE:WALL-OUTER
G1 F1800 X65.475 Y66.82 E18.71142
G1 X65.475 Y54.08 E19.19898
G1 X67.49 Y54.08 E19.2761
G1 X67.49 Y66.126 E19.7371
G0 F1620 X67.49 Y66.82
G0 F4320 X67.29 Y66.82
G0 X67.29 Y66.545
G0 X66.482 Y66.06
G0 X66.482 Y65.987
;TYPE:SKIN
G1 F1800 X66.306 Y65.811 E19.74662
G0 F4320 X66.656 Y65.666
G1 F1800 X66.306 Y65.316 E19.76556
G0 F4320 X66.656 Y65.171
G1 F1800 X66.306 Y64.821 E19.78451
G0 F4320 X66.656 Y64.676
G1 F1800 X66.306 Y64.326 E19.80345
G0 F4320 X66.656 Y64.181
G1 F1800 X66.306 Y63.831 E19.82239
G0 F4320 X66.656 Y63.686
G1 F1800 X66.306 Y63.336 E19.84133
G0 F4320 X66.656 Y63.192
G1 F1800 X66.306 Y62.841 E19.8603
G0 F4320 X66.656 Y62.697
G1 F1800 X66.306 Y62.346 E19.87927
G0 F4320 X66.656 Y62.202
G1 F1800 X66.306 Y61.851 E19.89824
G0 F4320 X66.656 Y61.707
G1 F1800 X66.306 Y61.356 E19.91721
G0 F4320 X66.656 Y61.212
G1 F1800 X66.306 Y60.861 E19.93618
G0 F4320 X66.656 Y60.717
G1 F1800 X66.306 Y60.366 E19.95515
G0 F4320 X66.656 Y60.222
G1 F1800 X66.306 Y59.871 E19.97412
G0 F4320 X66.656 Y59.727
G1 F1800 X66.306 Y59.376 E19.99309
G0 F4320 X66.656 Y59.232
G1 F1800 X66.306 Y58.881 E20.01206
G0 F4320 X66.656 Y58.737
G1 F1800 X66.306 Y58.386 E20.03103
G0 F4320 X66.656 Y58.242
G1 F1800 X66.306 Y57.891 E20.05
G0 F4320 X66.656 Y57.747
G1 F1800 X66.306 Y57.396 E20.06897
G0 F4320 X66.656 Y57.252
G1 F1800 X66.306 Y56.901 E20.08794
G0 F4320 X66.656 Y56.757
G1 F1800 X66.306 Y56.406 E20.10691
G0 F4320 X66.656 Y56.262
G1 F1800 X66.306 Y55.911 E20.12588
G0 F4320 X66.656 Y55.767
G1 F1800 X66.306 Y55.416 E20.14485
G0 F4320 X66.656 Y55.272
G1 F1800 X66.306 Y54.921 E20.16382
G0 F4320 X66.088 Y54.693
G1 F2400 E17.66382
G0 F4320 X65.67 Y66.145
G0 X64.635 Y66.145
G0 X55.365 Y66.145
G0 X54.33 Y66.145
G0 X53.85 Y66.145
;TYPE:WALL-INNER
G1 F2400 E20.16382
G1 F1800 X53.185 Y66.145 E20.18927
G1 X53.185 Y54.755 E20.62516
G1 X53.85 Y54.755 E20.65061
G1 X53.85 Y65.451 E21.05995
G0 F1620 X53.85 Y66.145
G0 F4320 X54.2 Y66.495
G1 F1800 X52.835 Y66.495 E21.11219
G1 X52.835 Y54.405 E21.57487
G1 X54.2 Y54.405 E21.62711
G1 X54.2 Y65.801 E22.06323
G0 F1620 X54.2 Y66.495
G0 F4320 X54.525 Y66.82
;TYPE:WALL-OUTER
G1 F1800 X52.51 Y66.82 E22.14035
G1 X52.51 Y54.08 E22.62791
G1 X54.525 Y54.08 E22.70502
G1 X54.525 Y66.126 E23.16602
G0 F1620 X54.525 Y66.82
G0 F4320 X54.325 Y66.82
G0 X54.325 Y66.545
G0 X53.612 Y66.06
G0 X53.612 Y65.987
;TYPE:SKIN
G1 F1800 X53.342 Y65.716 E23.18066
G0 F4320 X53.693 Y65.572
G1 F1800 X53.342 Y65.221 E23.19966
G0 F4320 X53.693 Y65.077
G1 F1800 X53.342 Y64.726 E23.21865
G0 F4320 X53.693 Y64.582
G1 F1800 X53.342 Y64.231 E23.23765
G0 F4320 X53.693 Y64.087
G1 F1800 X53.342 Y63.736 E23.25665
G0 F4320 X53.693 Y63.592
G1 F1800 X53.342 Y63.241 E23.27564
G0 F4320 X53.693 Y63.097
G1 F1800 X53.342 Y62.746 E23.29464
G0 F4320 X53.693 Y62.602
G1 F1800 X53.342 Y62.251 E23.31364
G0 F4320 X53.693 Y62.108
G1 F1800 X53.342 Y61.756 E23.33266
G0 F4320 X53.693 Y61.613
G1 F1800 X53.342 Y61.261 E23.35169
G0 F4320 X53.693 Y61.118
G1 F1800 X53.342 Y60.766 E23.37071
G0 F4320 X53.693 Y60.623
G1 F1800 X53.342 Y60.271 E23.38973
G0 F4320 X53.693 Y60.128
G1 F1800 X53.342 Y59.776 E23.40876
G0 F4320 X53.693 Y59.633
G1 F1800 X53.342 Y59.281 E23.42778
G0 F4320 X53.693 Y59.138
G1 F1800 X53.342 Y58.786 E23.44681
G0 F4320 X53.693 Y58.643
G1 F1800 X53.342 Y58.291 E23.46583
G0 F4320 X53.693 Y58.148
G1 F1800 X53.342 Y57.796 E23.48485
G0 F4320 X53.693 Y57.653
G1 F1800 X53.342 Y57.301 E23.50388
G0 F4320 X53.693 Y57.158
G1 F1800 X53.342 Y56.806 E23.5229
G0 F4320 X53.693 Y56.663
G1 F1800 X53.342 Y56.311 E23.54192
G0 F4320 X53.693 Y56.168
G1 F1800 X53.342 Y55.816 E23.56095
G0 F4320 X53.693 Y55.673
G1 F1800 X53.342 Y55.321 E23.57997
G0 F4320 X53.693 Y55.178
G1 F1800 X53.426 Y54.911 E23.59442
G0 F4320 X53.426 Y54.605
G1 F2400 E21.09442
G0 F4320 X54.336 Y54.269
G0 X55.699 Y53.056
G0 X63.815 Y52.57
;TYPE:WALL-INNER
G1 F2400 E23.59442
G1 F1800 X56.185 Y52.57 E23.88642
G1 X56.185 Y51.755 E23.91761
G1 X63.815 Y51.755 E24.20961
G1 X63.815 Y51.886 E24.21463
G0 F1620 X63.815 Y52.57
G0 F4320 X64.165 Y52.92
G1 F1800 X55.835 Y52.92 E24.53341
G1 X55.835 Y51.405 E24.59139
G1 X64.165 Y51.405 E24.91018
G1 X64.165 Y52.226 E24.9416
G0 F1620 X64.165 Y52.92
G0 F4320 X64.49 Y53.245
M104 S200
;TYPE:WALL-OUTER
G1 F1800 X55.51 Y53.245 E25.28527
G1 X55.51 Y51.08 E25.36812
G1 X64.49 Y51.08 E25.71178
G1 X64.49 Y52.551 E25.76808
G0 F1620 X64.49 Y53.245
G0 F4320 X64.29 Y53.245
G0 X64.29 Y52.97
G0 X63.475 Y52.485
G0 X63.475 Y52.23
;TYPE:SKIN
G1 F1800 X56.525 Y52.23 E26.03405
G1 X56.525 Y52.095 E26.03922
G1 X63.077 Y52.095 E26.28997
G0 F1620 X63.475 Y52.095
G0 X63.475 Y52.23
G0 F4320 X63.475 Y52.72
G1 F2400 E23.78997
;MESH:NONMESH
G0 F600 X63.475 Y52.72 Z0.394
G0 F4320 X55.992 Y53.05
G0 X55.992 Y54.295
;TIME_ELAPSED:56.506065
;LAYER:1
M140 S60
M106 S255
;TYPE:SUPPORT
G1 F2400 E26.28997
G1 F2025 X55.575 Y54.295 E26.29792
G1 X55.575 Y66.23 E26.52542
G1 X55.992 Y66.23 E26.53337
G1 X55.992 Y54.295 E26.76088
G1 X58.325 Y54.295 E26.80535
G1 X58.325 Y66.23 E27.03286
G1 X60.658 Y66.23 E27.07733
G1 X60.658 Y54.295 E27.30484
G1 X62.991 Y54.295 E27.34931
G1 X64.425 Y54.295 E27.37665
G1 X64.425 Y66.23 E27.60415
G1 X62.991 Y66.23 E27.63149
G1 X62.991 Y54.295 E27.859
G0 F5760 X54.46 Y67.87
G1 F2025 X54.46 Y68.705 E27.87491
G1 X53.985 Y68.705 E27.88397
G1 X53.985 Y67.87 E27.89988
G1 X54.46 Y67.87 E27.90894
G1 F2400 E25.40894
G0 F5760 X54.674 Y69.266
G0 X64.836 Y69.756
G0 X65.54 Y67.87
G1 F2400 E27.90894
G1 F2025 X65.54 Y68.705 E27.92486
G1 X66.015 Y68.705 E27.93391
G1 X66.015 Y67.87 E27.94983
G1 X65.54 Y67.87 E27.95888
G1 F2400 E25.45888
;MESH:prog-jig-v2-Cube.stl
G0 F5760 X64.295 Y67.87
G0 X63.815 Y68.245
;TYPE:WALL-INNER
G1 F2400 E27.95888
G1 X56.185 Y68.245 E28.10433
G1 X56.185 Y67.955 E28.10985
G1 X63.815 Y67.955 E28.23037
G1 X63.815 Y68.245 E28.23589
G0 F5760 X64.165 Y68.595
G1 F2400 X55.835 Y68.595 E28.39468
G1 X55.835 Y67.605 E28.41355
G1 X64.165 Y67.605 E28.57234
G1 X64.165 Y67.833 E28.57669
G0 F2160 X64.165 Y68.595
G0 F5760 X64.49 Y68.92
;TYPE:WALL-OUTER
G1 F2025 X55.51 Y68.92 E28.74787
G1 X55.51 Y67.28 E28.77913
G1 X64.49 Y67.28 E28.95031
G1 X64.49 Y68.013 E28.96428
G0 F1822.5 X64.49 Y68.92
G0 F5760 X64.29 Y68.92
G0 X63.965 Y68.395
G1 F2400 E26.46428
G0 F5760 X64.301 Y67.469
G0 X65.664 Y66.631
G0 X66.815 Y66.145
;TYPE:WALL-INNER
G1 F2400 E28.96428
G1 X66.15 Y66.145 E28.97696
G1 X66.15 Y54.755 E29.19408
G1 X66.815 Y54.755 E29.20675
G1 X66.815 Y64.751 E29.3973
G0 F2160 X66.815 Y66.145
G0 F5760 X67.165 Y66.495
G1 F2400 X65.8 Y66.495 E29.42332
G1 X65.8 Y54.405 E29.65378
G1 X67.165 Y54.405 E29.6798
G1 X67.165 Y65.101 E29.88369
G0 F2160 X67.165 Y66.495
G0 F5760 X67.49 Y66.82
;TYPE:WALL-OUTER
G1 F2025 X65.475 Y66.82 E29.9221
G1 X65.475 Y54.08 E30.16495
G1 X67.49 Y54.08 E30.20336
G1 X67.49 Y65.426 E30.41964
G0 F1822.5 X67.49 Y66.82
G0 F5760 X67.29 Y66.82
G0 X67.29 Y66.545
G0 X66.406 Y66.044
G0 X66.306 Y65.852
;TYPE:SKIN
G1 F1500 X66.656 Y65.501 E30.42909
G0 F5760 X66.306 Y65.357
G1 F1500 X66.656 Y65.006 E30.43854
G0 F5760 X66.306 Y64.862
G1 F1500 X66.656 Y64.511 E30.44799
G0 F5760 X66.306 Y64.367
G1 F1500 X66.656 Y64.016 E30.45744
G0 F5760 X66.306 Y63.872
G1 F1500 X66.656 Y63.521 E30.46689
G0 F5760 X66.306 Y63.377
G1 F1500 X66.656 Y63.026 E30.47634
